src/assets/duotone/EmptyWallet.svg

<svg width="24" height="24" viewBox="0 0 24 24"  xmlns="http://www.w3.org/2000/svg">
<path opacity="0.4" d="M18.04 13.55C17.62 13.96 17.38 14.55 17.44 15.18C17.53 16.26 18.52 17.05 19.6 17.05H21.5V18.24C21.5 20.31 19.81 22 17.74 22H6.26C4.19 22 2.5 20.31 2.5 18.24V11.51C2.5 9.44001 4.19 7.75 6.26 7.75H17.74C19.81 7.75 21.5 9.44001 21.5 11.51V12.95H19.48C18.92 12.95 18.41 13.17 18.04 13.55Z" />
<path d="M14.85 3.95V7.74999H6.26C4.19 7.74999 2.5 9.44 2.5 11.51V7.84002C2.5 6.65002 3.23 5.58997 4.34 5.16997L12.28 2.16997C13.52 1.70997 14.85 2.62 14.85 3.95Z" />
<path d="M22.5598 13.97V16.03C22.5598 16.58 22.1198 17.03 21.5598 17.05H19.5998C18.5198 17.05 17.5298 16.26 17.4398 15.18C17.3798 14.55 17.6198 13.96 18.0398 13.55C18.4098 13.17 18.9198 12.95 19.4798 12.95H21.5598C22.1198 12.97 22.5598 13.42 22.5598 13.97Z" />
<path d="M14 12.75H7C6.59 12.75 6.25 12.41 6.25 12C6.25 11.59 6.59 11.25 7 11.25H14C14.41 11.25 14.75 11.59 14.75 12C14.75 12.41 14.41 12.75 14 12.75Z" />
</svg>

<?xml version="1.0" encoding="UTF-8"?>
<svg width="24" height="24" viewBox="0 0 24 24" xmlns="http://www.w3.org/2000/svg">
 <path d="m18.04 13.55c-0.42 0.41-0.66 1-0.6 1.63 0.09 1.08 1.08 1.87 2.16 1.87h1.9v1.19c0 2.07-1.69 3.76-3.76 3.76h-11.48c-2.07 0-3.76-1.69-3.76-3.76v-6.73c0-2.07 1.69-3.76 3.76-3.76h11.48c2.07 0 3.76 1.69 3.76 3.76v1.44h-2.02c-0.56 0-1.07 0.22-1.44 0.6z" opacity=".4"/>
 <path d="m14.85 3.95v3.8h-8.59c-2.07 0-3.76 1.69-3.76 3.76v-3.67c0-1.19 0.73-2.25 1.84-2.67l7.94-3c1.24-0.46 2.57 0.45003 2.57 1.78z"/>
 <path d="m22.56 13.97v2.06c0 0.55-0.44 1-1 1.02h-1.96c-1.08 0-2.07-0.79-2.16-1.87-0.06-0.63 0.18-1.22 0.6-1.63 0.37-0.38 0.88-0.6 1.44-0.6h2.08c0.56 0.02 1 0.47 1 1.02z"/>
 <path d="m14 12.75h-7c-0.41 0-0.75-0.34-0.75-0.75s0.34-0.75 0.75-0.75h7c0.41 0 0.75 0.34 0.75 0.75s-0.34 0.75-0.75 0.75z"/>
</svg>
